X: 145
T: Sommermichl (G)
R: zwiefacher
O: Bavaria
Z: John Chambers <jc@trillian.mit.edu>
M: 23/4
L: 1/8
K: G:
|: "D7"d2 \
| "G"g4 | "D7"f4 | "C"e4 | "G"d4 \
|1 "D7"f2 c'2 f2 | "G"g2 b2 \
:|2 "D7"f2 c'2 ba | "G"g2 z2 \
ab | "D7"c'2 a2 b2 | c'2 a2 b2 | c'2 a2 b2 | c'4 | \
|: "D7"d2 \
| "G"g4 | "D7"f4 |
| "C"e4 | "G"d4 \
|1 "D7"f2 c'2 f2 | "G"g2 b2 \
:|2 "D7"f2 c'2 ba | "G"g2 z2 \
 Bc \
|: "G"d2 ba gf | "C"e2 c'2 | "D7"a4 | f2 e2 f2 \
|1 "G"g2 d2 | e2 d2 \
:|2 "G"g2 z2 |]
%%sep 2 1 500
